images/layout.svg

<svg fill="none" height="112" viewBox="0 0 346 112" width="346" xmlns="http://www.w3.org/2000/svg"><path d="m18.631 87h-18.417701v-86.737424h18.417701zm38.2383 1.8667c-3.8163 0-7.4251-.3734-10.8266-1.12-3.3185-.6637-6.2637-1.7837-8.8355-3.36-2.4889-1.6593-4.4385-3.8578-5.8489-6.5956-1.4104-2.8207-2.1155-6.3051-2.1155-10.4532 0-3.8993.7881-7.3008 2.3644-10.2044 1.6593-2.9037 4.1481-5.1437 7.4666-6.72s7.5082-2.3645 12.5689-2.3645c2.8207 0 5.5585.2904 8.2133.8712 2.6548.5807 5.0192 1.3688 7.0933 2.3644 2.157.9955 3.8577 2.0741 5.1022 3.2355l.7466 8.96c-1.6592-.9956-3.6503-1.7837-5.9733-2.3644-2.3229-.5808-4.8118-.8711-7.4666-.8711-4.0652 0-7.0518.6222-8.96 1.8666-1.8251 1.1615-2.7377 3.0281-2.7377 5.6 0 1.5763.4563 2.9866 1.3689 4.2311.9125 1.2444 2.1155 2.1985 3.6088 2.8622 1.5763.6637 3.1941.9955 4.8533.9955 4.2311 0 7.1763-.2903 8.8356-.8711 1.7422-.5807 2.6133-1.7422 2.6133-3.4844v-23.1466c0-3.8162-1.2445-6.554-3.7333-8.2133-2.406-1.7422-5.8489-2.6133-10.3289-2.6133-3.6503 0-7.3422.6637-11.0755 1.9911-3.6504 1.2445-6.637 2.7793-8.96 4.6044v-16.4266c2.1571-1.3274 5.4756-2.5718 9.9556-3.7333 4.5629-1.1615 9.6651-1.7422 15.3066-1.7422 1.9911 0 4.1896.1659 6.5955.4978 2.4059.3318 4.8118.9541 7.2177 1.8666 2.406.8297 4.6045 2.0741 6.5956 3.7334 2.074 1.6592 3.7333 3.7748 4.9777 6.3466 1.2445 2.5718 1.8667 5.7659 1.8667 9.5822l-.1245 29.7421c0 3.5674-1.2029 6.4711-3.6088 8.7111-2.406 2.157-5.8904 3.7333-10.4533 4.7288-4.48.9956-9.9141 1.4934-16.3022 1.4934zm54.3807 22.5243c-2.074 0-4.106-.207-6.097-.622-1.992-.415-3.692-.954-5.103-1.618v-15.0577c1.328.4978 2.572.8296 3.734.9956 1.161.2488 2.364.3733 3.609.3733 2.074 0 3.857-.4978 5.351-1.4933 1.576-.9126 2.862-2.5304 3.857-4.8534.996-2.2399 1.784-5.3096 2.365-9.2088l.373 10.5777-27.0041-66.453h21.2801l14.311 44.1776h-1.867l14.187-44.1776h19.911l-24.765 63.9642c-2.24 5.8073-4.687 10.4118-7.342 13.8134-2.572 3.401-5.268 5.849-8.089 7.342-2.82 1.493-5.724 2.24-8.711 2.24zm82.074-22.5243c-10.619 0-18.625-2.8208-24.018-8.4622-5.309-5.7245-7.964-14.1037-7.964-25.1377 0-11.8637 2.696-20.3673 8.089-25.511 5.475-5.2267 13.44-7.84 23.893-7.84 7.052 0 12.942 1.203 17.671 3.6089 4.812 2.3229 8.421 5.9318 10.827 10.8266 2.489 4.8948 3.733 11.2 3.733 18.9155 0 11.034-2.779 19.4132-8.338 25.1377-5.558 5.6414-13.523 8.4622-23.893 8.4622zm0-14.8089c3.07 0 5.6-.7052 7.591-2.1155 2.074-1.4933 3.609-3.6089 4.605-6.3467 1.078-2.8207 1.617-6.2636 1.617-10.3288 0-4.6459-.539-8.2963-1.617-10.9511-.996-2.7377-2.531-4.6874-4.605-5.8488-2.074-1.2445-4.604-1.8667-7.591-1.8667-3.153 0-5.724.6222-7.715 1.8667-1.992 1.2444-3.485 3.2355-4.48 5.9733-.913 2.6548-1.369 6.2637-1.369 10.8266 0 6.3052 1.078 11.034 3.235 14.1866 2.24 3.0696 5.683 4.6044 10.329 4.6044zm72.158 14.8089c-5.807 0-10.951-.9126-15.431-2.7378s-7.964-4.6044-10.453-8.3378c-2.489-3.8162-3.734-8.7525-3.734-14.8088v-38.9509h18.543v37.4576c0 3.9822.871 6.9689 2.613 8.96 1.825 1.9081 4.687 2.8622 8.587 2.8622 3.982 0 6.844-.9541 8.586-2.8622 1.742-1.9911 2.613-4.9778 2.613-8.96v-37.4576h17.423v38.9509c0 8.96-2.572 15.514-7.716 19.6622-5.144 4.1481-12.154 6.2222-21.031 6.2222zm68.393.6222c-7.301 0-12.735-1.7008-16.302-5.1022-3.568-3.4845-5.352-8.3792-5.352-14.6844v-31.4843h-9.208v-14.1866h9.208v-17.29774h19.414v17.29774h13.813v14.1866h-13.813v29.1199c0 2.157.456 3.7748 1.369 4.8533.912.9955 2.447 1.4933 4.604 1.4933 1.244 0 2.613-.2489 4.107-.7467 1.493-.4977 2.737-1.12 3.733-1.8666v15.9288c-1.742.9126-3.65 1.5348-5.724 1.8667-1.992.4148-3.941.6222-5.849.6222z" fill="#fff" opacity=".1"/></svg>

<svg width="346" height="112" viewBox="0 0 346 112" fill="none" xmlns="http://www.w3.org/2000/svg">
<path opacity="0.1" d="M18.631 87H0.213299V0.262576H18.631V87ZM56.8693 88.8667C53.053 88.8667 49.4442 88.4933 46.0427 87.7467C42.7242 87.083 39.779 85.963 37.2072 84.3867C34.7183 82.7274 32.7687 80.5289 31.3583 77.7911C29.9479 74.9704 29.2428 71.486 29.2428 67.3379C29.2428 63.4386 30.0309 60.0371 31.6072 57.1335C33.2665 54.2298 35.7553 51.9898 39.0738 50.4135C42.3923 48.8372 46.582 48.049 51.6427 48.049C54.4634 48.049 57.2012 48.3394 59.856 48.9202C62.5108 49.5009 64.8752 50.289 66.9493 51.2846C69.1063 52.2801 70.807 53.3587 72.0515 54.5201L72.7981 63.4801C71.1389 62.4845 69.1478 61.6964 66.8248 61.1157C64.5019 60.5349 62.013 60.2446 59.3582 60.2446C55.293 60.2446 52.3064 60.8668 50.3982 62.1112C48.5731 63.2727 47.6605 65.1393 47.6605 67.7112C47.6605 69.2875 48.1168 70.6978 49.0294 71.9423C49.9419 73.1867 51.1449 74.1408 52.6382 74.8045C54.2145 75.4682 55.8323 75.8 57.4915 75.8C61.7226 75.8 64.6678 75.5097 66.3271 74.9289C68.0693 74.3482 68.9404 73.1867 68.9404 71.4445V48.2979C68.9404 44.4817 67.6959 41.7439 65.2071 40.0846C62.8011 38.3424 59.3582 37.4713 54.8782 37.4713C51.2279 37.4713 47.536 38.135 43.8027 39.4624C40.1523 40.7069 37.1657 42.2417 34.8427 44.0668V27.6402C36.9998 26.3128 40.3183 25.0684 44.7983 23.9069C49.3612 22.7454 54.4634 22.1647 60.1049 22.1647C62.096 22.1647 64.2945 22.3306 66.7004 22.6625C69.1063 22.9943 71.5122 23.6166 73.9181 24.5291C76.3241 25.3588 78.5226 26.6032 80.5137 28.2625C82.5877 29.9217 84.247 32.0373 85.4914 34.6091C86.7359 37.1809 87.3581 40.375 87.3581 44.1913L87.2336 73.9334C87.2336 77.5008 86.0307 80.4045 83.6248 82.6445C81.2188 84.8015 77.7344 86.3778 73.1715 87.3733C68.6915 88.3689 63.2574 88.8667 56.8693 88.8667ZM111.25 111.391C109.176 111.391 107.144 111.184 105.153 110.769C103.161 110.354 101.461 109.815 100.05 109.151V94.0933C101.378 94.5911 102.622 94.9229 103.784 95.0889C104.945 95.3377 106.148 95.4622 107.393 95.4622C109.467 95.4622 111.25 94.9644 112.744 93.9689C114.32 93.0563 115.606 91.4385 116.601 89.1155C117.597 86.8756 118.385 83.8059 118.966 79.9067L119.339 90.4844L92.3349 24.0314H113.615L127.926 68.209H126.059L140.246 24.0314H160.157L135.392 87.9956C133.152 93.8029 130.705 98.4074 128.05 101.809C125.478 105.21 122.782 107.658 119.961 109.151C117.141 110.644 114.237 111.391 111.25 111.391ZM193.324 88.8667C182.705 88.8667 174.699 86.0459 169.306 80.4045C163.997 74.68 161.342 66.3008 161.342 55.2668C161.342 43.4031 164.038 34.8995 169.431 29.7558C174.906 24.5291 182.871 21.9158 193.324 21.9158C200.376 21.9158 206.266 23.1188 210.995 25.5247C215.807 27.8476 219.416 31.4565 221.822 36.3513C224.311 41.2461 225.555 47.5513 225.555 55.2668C225.555 66.3008 222.776 74.68 217.217 80.4045C211.659 86.0459 203.694 88.8667 193.324 88.8667ZM193.324 74.0578C196.394 74.0578 198.924 73.3526 200.915 71.9423C202.989 70.449 204.524 68.3334 205.52 65.5956C206.598 62.7749 207.137 59.332 207.137 55.2668C207.137 50.6209 206.598 46.9705 205.52 44.3157C204.524 41.578 202.989 39.6283 200.915 38.4669C198.841 37.2224 196.311 36.6002 193.324 36.6002C190.171 36.6002 187.6 37.2224 185.609 38.4669C183.617 39.7113 182.124 41.7024 181.129 44.4402C180.216 47.095 179.76 50.7039 179.76 55.2668C179.76 61.572 180.838 66.3008 182.995 69.4534C185.235 72.523 188.678 74.0578 193.324 74.0578ZM265.482 88.8667C259.675 88.8667 254.531 87.9541 250.051 86.1289C245.571 84.3037 242.087 81.5245 239.598 77.7911C237.109 73.9749 235.864 69.0386 235.864 62.9823V24.0314H254.407V61.489C254.407 65.4712 255.278 68.4579 257.02 70.449C258.845 72.3571 261.707 73.3112 265.607 73.3112C269.589 73.3112 272.451 72.3571 274.193 70.449C275.935 68.4579 276.806 65.4712 276.806 61.489V24.0314H294.229V62.9823C294.229 71.9423 291.657 78.4963 286.513 82.6445C281.369 86.7926 274.359 88.8667 265.482 88.8667ZM333.875 89.4889C326.574 89.4889 321.14 87.7881 317.573 84.3867C314.005 80.9022 312.221 76.0075 312.221 69.7023V38.218H303.013V24.0314H312.221V6.73366H331.635V24.0314H345.448V38.218H331.635V67.3379C331.635 69.4949 332.091 71.1127 333.004 72.1912C333.916 73.1867 335.451 73.6845 337.608 73.6845C338.852 73.6845 340.221 73.4356 341.715 72.9378C343.208 72.4401 344.452 71.8178 345.448 71.0712V87C343.706 87.9126 341.798 88.5348 339.724 88.8667C337.732 89.2815 335.783 89.4889 333.875 89.4889Z" fill="white"/>
</svg>
